X: 18116
T: Humours Of Bath, The
R: jig
M: 6/8
K: Gmajor
|:D|G2g fdB|ecg dBG|EGc BGB|ABG FED|
G2g fdB|ecg dBG|EGc BGB|AEF G2:|
|:FAd fdA|GBd gdB|A^ce a2g|fAe def|
g3 fdB|ecg dBG|EGc BGB|AEF G3:|

